svgs/repainter.svg

<svg width="192" height="192" viewBox="0 0 192 192" fill="none" xmlns="http://www.w3.org/2000/svg">
<g clip-path="url(#clip0_308_2)">
<path d="M96 22V60M120 22V66M78 132V158C78 161.183 79.2643 164.235 81.5147 166.485C83.7652 168.736 86.8174 170 90 170H102C105.183 170 108.235 168.736 110.485 166.485C112.736 164.235 114 161.183 114 158V132M48 108V120C48 123.183 49.2643 126.235 51.5147 128.485C53.7652 130.736 56.8174 132 60 132H132C135.183 132 138.235 130.736 140.485 128.485C142.736 126.235 144 123.183 144 120V108.149L48 108ZM144 90V34C144 30.8174 142.736 27.7652 140.485 25.5147C138.235 23.2643 135.183 22 132 22H60C56.8174 22 53.7652 23.2643 51.5147 25.5147C49.2643 27.7652 48 30.8174 48 34V90H144Z" stroke="black" stroke-width="12" stroke-linecap="round" stroke-linejoin="round"/>
</g>
<defs>
<clipPath id="clip0_308_2">
<rect width="192" height="192" fill="white"/>
</clipPath>
</defs>
</svg>

<svg width="192" height="192" viewBox="0 0 192 192" fill="none" xmlns="http://www.w3.org/2000/svg"><g clip-path="url(#a)"><path d="M96 22v38m24-38v44m-42 66v26a11.998 11.998 0 0 0 12 12h12c3.183 0 6.235-1.264 8.485-3.515A11.996 11.996 0 0 0 114 158v-26m-66-24v12a11.998 11.998 0 0 0 12 12h72c3.183 0 6.235-1.264 8.485-3.515A11.996 11.996 0 0 0 144 120v-11.851L48 108Zm96-18V34a11.998 11.998 0 0 0-12-12H60a12 12 0 0 0-12 12v56h96Z" stroke="#000" stroke-width="12" stroke-linecap="round" stroke-linejoin="round"/></g><defs><clipPath id="a"><path fill="#fff" d="M0 0h192v192H0z"/></clipPath></defs></svg>
